X:1
T:James Gibb editions
T:Salve Regina- Schubert
T:#
%%score [ 1 2 3 4 ]
L:1/8
Q:1/4=96
M:2/2
K:Bb
V:1 treble nm="Soprano" snm="S"
V:2 treble nm="Alto" snm="A"
V:3 treble-8 nm="Tenor" snm="T"
V:4 bass nm="Bass" snm="B"
V:1
"^Salve Regina, D386""^Franz Schubert\n(1797-1828)"!p!"^larghetto" d8 | d4 e4 | (d6 c2) | B8 | %4
w: Sal-|ve Re-|gi\- *|na,|
 f6 f2 | f4 e2 d2 | c6 d2 | c4 z4 | d8 |[M:2/2] d4 e4 | (d6 c2) | B8 | f6 f2 | f4 (e2 d2) | c8 | %15
w: ma- ter|mi- se- ri-|cor- di-|ae,|vi-|ta, dul-|ce\- *|do,|et spes|no- stra *|sal-|
 d4 z4 | d6 d2 |!p! (d2 e4) c2 | (B4 d2 c2) | B4 z2!f! d2 | d6 d2 | e4 d4 |!p! d4 c2 c2 | %23
w: ve,|et spes|no\- * stra|sal\- * *|ve. Ad|te cla-|ma- mus|e- xu- les|
 c4 B2 B2 |!>(!!<(! B8!>)!!<)! | A4 z2!f! A2 | e4 ^f2 f2 | g4 d2 d2 | (d2 ^c2)"^dim." =c2 c2 | %29
w: fi- li- i|E-|vae, ad|te su- spi-|ra- mus ge-|men\- * tes et|
 c4 B2 B2 |!p! A4 ^c2 c2 | d4 =c4 |!<(!!>(! ^G8!<)!!>)! | !fermata!A8 |!f! =c6 c2 | d4 c4 | %36
w: flen- tes in|hac la- cry-|ma- rum|val-|le.|E- ja|er- go,|
 f4 =e4 | d4 c4 | (c6 B2) | A4 z4 |!p! d4 c4 | B4 B2 =B2 | c4 _B4 | A4 (B2 c2) | d6 =e2 | %45
w: ad- vo-|ca- ta|no\- *|stra,|il- los|tu- os mi-|se- ri-|cor- des *|o- cu-|
 (f2 =e2) (d2 c2) | (B2 d2) (c2 B2) | B4 A2 F2 | !>!!courtesy!_e8 | d4 d3 d | d6 d2 | =e4 f4 | %52
w: los * ad *|nos * con\- *|ver- te, et|Je-|sum, be- ne-|di- ctum|fru- ctum|
 g6 B2 | B4 A4 | =e6 G2 | G4 F4 |!p!!<(! d8!<)! | f4 !courtesy!_e4 | d4 c4 | B3 B A2 G2 | %60
w: ven- tris|tu- i,|ven- tris|tu- i,|no-|bis post|hoc e-|xi- li- um o\-|
!p! (!courtesy!=F4 A2 G2) | F6 F2 |!f! !courtesy!_e6 c2 | B4 A2 c2 | e6 c2 | B6 A2 | %66
w: sten\- * *|de, o\-|sten- de|no- bis post|hoc e-|xi- li-|
[Q:1/4=48] !fermata!A4!p![Q:1/4=96] F4 | d8 | d4 e4 | (d6 c2) | B4 d4 | f6 f2 | f4 e2 d2 | %73
w: um. O|pi-|a, o|cle\- *|mens, o|dul- cis|vir- go Ma-|
 (c4 d4) | c4 z2 F2 | d8 | d4 e4 | (d6 c2) | B4 d4 | f6 f2 | (g2 f2) e2 d2 | c8 | d4 z2 d2 | %83
w: ri\- *|a, o|pi-|a, o|cle\- *|mens, o|dul- cis|vir\- * go Ma-|ri-|a! o|
 d6 d2 | (d2 e2) d2 c2 | (B4 d2 c2) | B4 z2!pp![Q:1/4=95] B2 |[Q:1/4=93] B4[Q:1/4=90] B4 | %88
w: cle- mens|vir\- * go Ma-|ri\- * *|a! o|dul- cis|
[Q:1/4=88] B4[Q:1/4=86] B2[Q:1/4=85] B2 |[Q:1/4=82] B8 |[Q:1/4=80] !fermata!B8 |] %91
w: vir- go Ma-|ri-|a!|
V:2
!p! B8 | B4 B4 | (B6 A2) | B8 | B6 B2 | F4 A2 B2 | A6 B2 | A4 z4 | B8 |[M:2/2] B4 B4 | (B6 A2) | %11
w: Sal-|ve Re-|gi\- *|na,|ma- ter|mi- se- ri-|cor- di-|ae,|vi-|ta, dul-|ce\- *|
 B8 | B6 B2 | F4 (A2 B2) | (B2 A2 G2 A2) | B4 z4 | ^F6 F2 |!p! G6 G2 | (=F4 A4) | B4 z2!f! G2 | %20
w: do,|et spes|no- stra *|sal\- * * *|ve,|et spes|no- stra|sal\- *|ve. Ad|
 G6 B2 | A4 B4 |!p! G4 G2 G2 | G4 G2 G2 |!>(!!<(! G8!>)!!<)! | ^F4 z2!f! F2 | ^F4 A2 A2 | %27
w: te cla-|ma- mus|e- xu- les|fi- li- i|E-|vae, ad|te su- spi-|
 G4 B2 B2 | A4"^dim." A2 A2 | A4 G2 G2 |!p! =E4 B2 B2 | A4 F4 |!<(!!>(! D8!<)!!>)! | !fermata!^C8 | %34
w: ra- mus ge-|men- tes et|flen- tes in|hac la- cry-|ma- rum|val-|le.|
!f! F6 F2 | F4 F4 | A4 A4 | F4 F4 | (=E6 G2) | F4 z4 |!p! F4 ^F4 | G4 G2 =F2 | =E4 E4 | F4 F4 | %44
w: E- ja|er- go,|ad- vo-|ca- ta|no\- *|stra,|il- los|tu- os mi-|se- ri-|cor- des|
 F6 G2 | F4 A4 | G4 G4 | G4 F2 F2 | !>!c8 | B4 B3 B | B6 B2 | B4 B4 | B6 G2 | G4 F4 | G6 =E2 | %55
w: o- cu-|los ad|nos con-|ver- te, et|Je-|sum, be- ne-|di- ctum|fru- ctum|ven- tris|tu- i,|ven- tris|
 =E4 D4 |!p!!<(! F8!<)! | F4 ^F4 | G4 A4 | G3 G ^F2 G2 |!p! (C4 =E4) | F6 F2 | %62
w: tu- i,|no-|bis post|hoc e-|xi- li- um o\-|sten\- *|de, o\-|
!f! C6 !courtesy!_E2 | E4 E2 E2 | C6 E2 | E6 E2 | !fermata!E4!p! F4 | B8 | B4 B4 | (B6 A2) | %70
w: sten- de|no- bis post|hoc e-|xi- li-|um. O|pi-|a, o|cle\- *|
 B4 B4 | B6 B2 | F4 A2 B2 | (A4 B4) | A4 z2 F2 | B8 | B4 B4 | (B6 A2) | B4 B4 | B6 B2 | B4 A2 B2 | %81
w: mens, o|dul- cis|vir- go Ma-|ri\- *|a, o|pi-|a, o|cle\- *|mens, o|dul- cis|vir- go Ma-|
 (B2 A2 G2 A2) | B4 z2 F2 | ^F6 F2 | G4 G2 G2 | (!courtesy!=F4 A4) | B4 z2!pp! F2 | F4 G4 | %88
w: ri\- * * *|a! o|cle- mens|vir- go Ma-|ri\- *|a! o|dul- cis|
 _A4 G2 F2 | G8 | !fermata!F8 |] %91
w: vir- go Ma-|ri-|a!|
V:3
!p! f8 | f4 g4 | (f6 e2) | d8 | f6 f2 | f4 f2 f2 | f6 f2 | f4 z4 | f8 |[M:2/2][K:treble-8] f4 g4 | %10
w: Sal-|ve Re-|gi\- *|na,|ma- ter|mi- se- ri-|cor- di-|ae,|vi-|ta, dul-|
 (f6 e2) | d8 | f6 f2 | f6 f2 | f8 | f4 z4 | d6 A2 |!p! (G4 c2) e2 | (d4 f2 e2) | d4 z2!f! B2 | %20
w: ce\- *|do,|et spes|no- stra|sal-|ve,|et spes|no\- * stra|sal\- * *|ve. Ad|
 B6 B2 | c4 B4 |!p! G4 c2 c2 | d4 d2 d2 |!<(!!>(! =e8!<)!!>)! | A4 z2!f! A2 | A4 e2 e2 | d4 d2 d2 | %28
w: te cla-|ma- mus|e- xu- les|fi- li- i|E-|vae, ad|te su- spi-|ra- mus ge-|
 (d2 e2)"^dim." e2 e2 | d4 d2 d2 |!p! ^c4 =e2 e2 | A4 d4 |!>(!!<(! D8!>)!!<)! | !fermata!=E8 | %34
w: men\- * tes et|flen- tes in|hac la- cry-|ma- rum|val-|le.|
!f! A6 A2 | B4 A4 | d4 c4 | B4 A4 | (G6 c2) | c4 z4 |!p! B4 A4 | G4 G2 ^G2 | A4 =G4 | F4 (F2 A2) | %44
w: E- ja|er- go,|ad- vo-|ca- ta|no\- *|stra,|il- los|tu- os mi-|se- ri-|cor- des *|
 (B4 d2) c2 | c4 d4 | (d2 B2) (G2 c2) | c4 c2 f2 | !>!f8 | f4 d3 d | d6 d2 | c4 c4 | c6 c2 | %53
w: o\- * cu-|los ad|nos * con\- *|ver- te, et|Je-|sum, be- ne-|di- ctum|fru- ctum|ven- tris|
 c4 c4 | A6 A2 | A4 A4 |!p!!<(! d8!<)! | c4 c4 | d4 !courtesy!_e4 | d3 d c2 B2 |!p! (A4 c2 B2) | %61
w: tu- i,|ven- tris|tu- i,|no-|bis post|hoc e-|xi- li- um o\-|sten\- * *|
 A6 A2 |!f! A6 A2 | c4 c2 c2 | A6 A2 | c6 c2 | !fermata!c4!p! f4 | f8 | f4 g4 | (f6 e2) | d4 f4 | %71
w: de, o\-|sten- de|no- bis post|hoc e-|xi- li-|um. O|pi-|a, o|cle\- *|mens, o|
 f6 f2 | f4 f2 f2 | f8 | f4 z2 f2 | f8 | f4 g4 | (f6 e2) | d4 f4 | f6 f2 | f4 f2 f2 | f8 | %82
w: dul- cis|vir- go Ma-|ri-|a, o|pi-|a, o|cle\- *|mens, o|dul- cis|vir- go Ma-|ri-|
 f4 z2 B2 | A6 A2 | (G2 c2) d2 e2 | (d4 f2 e2) | d4 z2!pp! d2 | d4 e4 | f4 e2 d2 | e8 | %90
w: a! o|cle- mens|vir\- * go Ma-|ri\- * *|a! o|dul- cis|vir- go Ma-|ri-|
 !fermata!d8 |] %91
w: a!|
V:4
!p! B,8 | B,4 E,4 | F,8 | B,8 | D6 D2 | D4 C2 B,2 | F,6 B,2 | F,4 z4 | B,8 |[M:2/2] B,4 E,4 | F,8 | %11
w: Sal-|ve Re-|gi-|na,|ma- ter|mi- se- ri-|cor- di-|ae,|vi-|ta, dul-|ce-|
 B,8 | D6 D2 | D4 (C2 B,2) | F,8 | B,4 z4 | D,6 D,2 |!p! E,6 E,2 | F,8 | B,,4 z2!f! G,2 | G,6 G,2 | %21
w: do,|et spes|no- stra *|sal-|ve,|et spes|no- stra|sal-|ve. Ad|te cla-|
 ^F,4 G,4 |!p! E,4 E,2 E,2 | D,4 D,2 D,2 |!>(!!<(! ^C,8!>)!!<)! | D,4 z2!f! D,2 | =C,4 C2 C2 | %27
w: ma- mus|e- xu- les|fi- li- i|E-|vae, ad|te su- spi-|
 B,4 G,2 G,2 | ^F,4"^dim." F,2 F,2 | G,4 G,2 G,2 |!p! A,4 G,2 G,2 | F,4 D,4 | %32
w: ra- mus ge-|men- tes et|flen- tes in|hac la- cry-|ma- rum|
!<(!!>(! B,,8!<)!!>)! | !fermata!A,,8 |!f! F,6 F,2 | B,,4 F,4 | D,4 A,4 | B,4 F,4 | (C,6 =E,2) | %39
w: val-|le.|E- ja|er- go,|ad- vo-|ca- ta|no\- *|
 F,4 z4 |!p! B,,4 D,4 | (G,2 F,2) =E,2 D,2 | C,4 ^C,4 | (D,2 _E,2) (D,2 =C,2) | B,,6 B,2 | %45
w: stra,|il- los|tu\- * os mi-|se- ri-|cor\- * des *|o- cu-|
 A,4 (F,2 ^F,2) | G,4 =E,4 | F,4 F,2 F,2 | !>!A,8 | B,4 B,3 B, | G,6 G,2 | G,4 F,4 | =E,6 E,2 | %53
w: los ad *|nos con-|ver- te, et|Je-|sum, be- ne-|di- ctum|fru- ctum|ven- tris|
 F,4 F,4 | ^C,6 C,2 | D,4 D,4 |!p!!<(! B,8!<)! | A,4 A,4 | B,4 ^F,4 | G,3 G,, A,,2 B,,2 |!p! C,8 | %61
w: tu- i,|ven- tris|tu- i,|no-|bis post|hoc e-|xi- li- um o\-|sten-|
 F,6 F,2 |!f! F,6 F,2 | F,4 F,2 F,2 | F,6 F,2 | F,6 F,2 | !fermata!F,4!p! F,4 | B,8 | B,4 E,4 | %69
w: de, o\-|sten- de|no- bis post|hoc e-|xi- li-|um. O|pi-|a, o|
 F,8 | B,4 B,4 | D6 D2 | D4 C2 B,2 | (F,4 B,4) | F,4 z2 F,2 | B,8 | B,4 E,4 | F,8 | B,4 B,4 | %79
w: cle-|mens, o|dul- cis|vir- go Ma-|ri\- *|a, o|pi-|a, o|cle-|mens, o|
 D6 D2 | D4 C2 B,2 | F,8 | B,4 z2 B,,2 | D,6 D,2 | E,4 E,2 E,2 | F,8 | B,4 z2!pp! B,,2 | %87
w: dul- cis|vir- go Ma-|ri-|a! o|cle- mens|vir- go Ma-|ri-|a! o|
 B,,4 B,,4 | B,,4 B,,2 B,,2 | E,8 | !fermata!B,,8 |] %91
w: dul- cis|vir- go Ma-|ri-|a!|

